public/assets/img/partners2.svg

<svg width="72" height="72" viewBox="0 0 72 72" fill="none" xmlns="http://www.w3.org/2000/svg">
<g clip-path="url(#clip0_364_5054)">
<path d="M29.3137 16.3843C28.5401 16.2729 28.5033 16.2357 28.8717 16.1986C29.5716 16.0871 31.1925 16.2357 32.3345 16.4958C34.9869 17.1274 37.3815 18.762 39.9233 21.6227L40.5864 22.4029L41.5443 22.2543C45.6334 21.5856 49.833 22.1057 53.3327 23.7404C54.2905 24.1862 55.8009 25.0778 55.9851 25.3007C56.0588 25.375 56.1693 25.858 56.243 26.341C56.5009 28.0871 56.3904 29.3874 55.8378 30.3905C55.5431 30.9478 55.5431 31.0964 55.7273 31.5794C55.8746 31.9509 56.3167 32.211 56.7219 32.211C57.606 32.211 58.527 30.7992 58.9691 28.8301L59.1533 28.05L59.4848 28.4215C61.3636 30.5391 62.8372 33.4741 63.0582 35.5546L63.1319 36.1119L62.8003 35.6289C62.2478 34.7744 61.732 34.2171 61.0321 33.7342C59.7796 32.8797 58.4533 32.6196 54.9536 32.4339C51.7855 32.2481 49.9804 31.988 48.2121 31.3936C45.1913 30.3905 43.6441 29.0902 40.0707 24.2976C38.4866 22.18 37.492 21.0283 36.4973 20.0623C34.3238 17.9447 32.1503 16.8302 29.3137 16.3843Z" fill="#FF007A"/>
<path d="M56.7588 21.102C56.8324 19.6903 57.0166 18.7615 57.4219 17.907C57.5692 17.5726 57.7166 17.2754 57.7534 17.2754C57.7902 17.2754 57.7166 17.5355 57.6061 17.8327C57.3113 18.65 57.2745 19.8017 57.4587 21.102C57.7166 22.7738 57.8271 22.9968 59.5954 24.8172C60.4058 25.6717 61.3636 26.7491 61.732 27.1949L62.3583 28.0122L61.732 27.4178C60.9584 26.6748 59.1901 25.263 58.7849 25.0773C58.527 24.9286 58.4902 24.9286 58.306 25.1144C58.1586 25.263 58.1218 25.4859 58.1218 26.5633C58.085 28.2351 57.8639 29.2754 57.3113 30.3528C57.0166 30.9101 56.9798 30.7986 57.2377 30.167C57.4219 29.6841 57.4587 29.4612 57.4587 27.8636C57.4587 24.6314 57.0903 23.8512 54.8431 22.5509C54.2906 22.2166 53.3327 21.7336 52.7802 21.4735C52.1907 21.2135 51.7487 20.9906 51.7855 20.9906C51.8592 20.9163 54.0327 21.5478 54.88 21.9194C56.1693 22.4395 56.3904 22.4766 56.5377 22.4395C56.6482 22.328 56.7219 22.0308 56.7588 21.102Z" fill="#FF007A"/>
<path d="M30.8241 26.6379C29.2769 24.4831 28.2822 21.1395 28.5033 18.6503L28.5769 17.8701L28.9453 17.9444C29.6084 18.0559 30.7504 18.5017 31.303 18.8361C32.7766 19.7277 33.4397 20.9537 34.0659 24.0001C34.2501 24.8918 34.508 25.932 34.6185 26.2664C34.8027 26.8237 35.5027 28.124 36.0921 28.9413C36.4973 29.5358 36.2394 29.833 35.3185 29.7587C33.9186 29.6101 32.0398 28.3097 30.8241 26.6379Z" fill="#FF007A"/>
<path d="M54.88 42.7987C47.5859 39.8266 45.0071 37.2631 45.0071 32.9164C45.0071 32.2848 45.044 31.7646 45.044 31.7646C45.0808 31.7646 45.3387 31.9876 45.6702 32.2476C47.1438 33.4365 48.8016 33.9566 53.4064 34.6253C56.0957 35.034 57.6429 35.3312 59.0428 35.8142C63.5003 37.3003 66.2632 40.3467 66.9263 44.4705C67.1105 45.6594 67 47.9256 66.7053 49.1145C66.4474 50.0433 65.7106 51.7523 65.5265 51.7894C65.4896 51.7894 65.4159 51.6037 65.4159 51.3064C65.3423 49.7461 64.5686 48.26 63.2793 47.1083C61.732 45.7708 59.7427 44.7677 54.88 42.7987Z" fill="#FF007A"/>
<path d="M49.7225 44.0249C49.6488 43.4676 49.4646 42.7617 49.3541 42.4645L49.1699 41.9072L49.5015 42.3159C49.9804 42.8732 50.3488 43.5419 50.6803 44.4707C50.9382 45.1766 50.9382 45.3995 50.9382 46.5512C50.9382 47.6657 50.9014 47.9258 50.6803 48.5574C50.3119 49.5605 49.8699 50.2664 49.1331 51.0465C47.8069 52.4212 46.0755 53.1642 43.6072 53.4986C43.1652 53.5357 41.9127 53.6472 40.8075 53.7215C38.0446 53.8701 36.2026 54.1673 34.5449 54.7617C34.3238 54.836 34.1028 54.9103 34.066 54.8732C33.9923 54.7989 35.1343 54.1301 36.0553 53.6843C37.3446 53.0527 38.6708 52.7184 41.5811 52.1983C43.0178 51.9753 44.4914 51.6781 44.8598 51.5295C48.5068 50.3778 50.3119 47.5171 49.7225 44.0249Z" fill="#FF007A"/>
<path d="M53.0749 50.0063C52.117 47.8887 51.896 45.8825 52.4118 43.9877C52.4854 43.802 52.5591 43.6162 52.6328 43.6162C52.7065 43.6162 52.9275 43.7277 53.1485 43.8763C53.5906 44.1735 54.5116 44.6936 56.8693 45.9939C59.8532 47.6286 61.5478 48.8918 62.7267 50.3407C63.7582 51.6038 64.3844 53.0527 64.6791 54.836C64.8633 55.8391 64.7528 58.254 64.495 59.2571C63.6845 62.415 61.8425 64.9413 59.1533 66.3902C58.7481 66.6131 58.4165 66.7617 58.3797 66.7617C58.3428 66.7617 58.4902 66.3902 58.7112 65.9444C59.5954 64.0496 59.7059 62.2292 59.0428 60.1859C58.6375 58.9227 57.7903 57.3995 56.0957 54.836C54.0695 51.8639 53.5906 51.0837 53.0749 50.0063Z" fill="#FF007A"/>
<path d="M25.6298 61.3747C28.3559 59.0713 31.7082 57.4366 34.8027 56.9165C36.1289 56.6936 38.3393 56.7679 39.555 57.1022C41.5074 57.6224 43.2757 58.7369 44.1967 60.1115C45.0808 61.449 45.486 62.6007 45.8913 65.1642C46.0386 66.1673 46.2228 67.2075 46.2596 67.4304C46.5544 68.7679 47.1438 69.8081 47.8806 70.3654C49.0226 71.2199 51.0119 71.257 52.9643 70.514C53.2959 70.4026 53.5906 70.2911 53.5906 70.3282C53.6643 70.4026 52.6696 71.0713 52.0065 71.4056C51.0855 71.8886 50.3488 72.0372 49.3541 72.0372C47.5858 72.0372 46.0754 71.1084 44.8598 69.2508C44.6019 68.8793 44.0861 67.8019 43.6441 66.7988C42.3547 63.7895 41.6916 62.8979 40.1812 61.8948C38.855 61.0403 37.1604 60.8546 35.8711 61.4861C34.1765 62.3035 33.7344 64.4954 34.9132 65.8329C35.3921 66.3902 36.2763 66.836 37.0131 66.9474C38.3761 67.1332 39.555 66.0558 39.555 64.6812C39.555 63.7895 39.2234 63.2694 38.3393 62.8608C37.1604 62.3406 35.8711 62.9351 35.9079 64.0868C35.9079 64.5697 36.1289 64.8669 36.6078 65.0899C36.9025 65.2385 36.9025 65.2385 36.6815 65.2013C35.6132 64.9784 35.3553 63.6409 36.2026 62.7865C37.2341 61.7462 39.4076 62.192 40.1444 63.6409C40.4391 64.2354 40.4759 65.4242 40.2181 66.1673C39.5918 67.8019 37.8235 68.6564 36.0184 68.1734C34.8027 67.8391 34.287 67.5047 32.8134 65.9815C30.2347 63.3066 29.24 62.7865 25.5561 62.2292L24.8562 62.1177L25.6298 61.3747Z" fill="#FF007A"/>
<path fill-rule="evenodd" clip-rule="evenodd" d="M6.25258 1.59752C14.8361 12.1115 28.0613 28.4582 28.7244 29.3498C29.2769 30.0929 29.0559 30.7988 28.1349 31.3189C27.6192 31.6161 26.5509 31.9133 26.0351 31.9133C25.4457 31.9133 24.7457 31.6161 24.2668 31.1331C23.9353 30.7988 22.4986 28.6811 19.2567 23.5913C16.7885 19.6904 14.6887 16.4582 14.6519 16.4211C14.5045 16.3467 14.5045 16.3468 18.9989 24.4458C21.8355 29.5356 22.7564 31.356 22.7564 31.5789C22.7564 32.0619 22.6091 32.322 22.0197 32.9907C21.025 34.1053 20.5829 35.3684 20.2514 38.0062C19.883 40.9412 18.8883 43.0217 16.0517 46.5511C14.394 48.6316 14.1361 49.0031 13.7309 49.8576C13.2151 50.8978 13.0678 51.4923 12.9941 52.8297C12.9204 54.2415 13.0678 55.1331 13.473 56.4706C13.8414 57.6594 14.2466 58.4396 15.2413 59.9628C16.0886 61.3003 16.6043 62.3034 16.6043 62.6749C16.6043 62.9721 16.678 62.9721 18.0042 62.6749C21.1724 61.9319 23.7879 60.6687 25.2247 59.1084C26.1088 58.1424 26.3298 57.6223 26.3298 56.2848C26.3298 55.4303 26.293 55.2446 26.0719 54.7245C25.7036 53.9071 25.0036 53.2384 23.4932 52.1981C21.5039 50.8235 20.6566 49.709 20.4356 48.2229C20.2514 46.9598 20.4724 46.1053 21.5776 43.7647C22.7196 41.3498 23.0143 40.3467 23.1985 37.8947C23.309 36.3344 23.4932 35.7028 23.9353 35.2198C24.4142 34.6997 24.8194 34.5139 25.9614 34.3653C27.8402 34.1053 29.0559 33.6223 30.0137 32.6935C30.861 31.9133 31.2294 31.1331 31.2662 29.9814L31.3031 29.1269L30.8242 28.6068C29.0927 26.6006 5.11057 0 5.00005 0C4.96321 0 5.55264 0.705882 6.25258 1.59752ZM17.5621 54.4272C17.9674 53.7214 17.7463 52.8297 17.0832 52.3839C16.457 51.9752 15.4992 52.161 15.4992 52.7183C15.4992 52.8669 15.5728 53.0155 15.7939 53.0898C16.1254 53.2755 16.1623 53.4613 15.9044 53.87C15.6465 54.2786 15.6465 54.6502 15.9781 54.9102C16.4938 55.3189 17.1938 55.096 17.5621 54.4272Z" fill="#FF007A"/>
<path fill-rule="evenodd" clip-rule="evenodd" d="M32.4819 34.8857C31.5978 35.1458 30.7505 36.1117 30.4926 37.0777C30.3452 37.6721 30.4189 38.7495 30.6768 39.0839C31.082 39.604 31.4504 39.7526 32.4819 39.7526C34.508 39.7526 36.2395 38.861 36.4237 37.7836C36.6079 36.8919 35.8342 35.6659 34.7659 35.1086C34.2133 34.8114 33.0713 34.7 32.4819 34.8857ZM34.8396 36.7433C35.1343 36.2975 35.0238 35.8145 34.4712 35.4802C33.4765 34.8486 31.9661 35.3687 31.9661 36.3347C31.9661 36.8176 32.7398 37.3377 33.4765 37.3377C33.9554 37.3377 34.6185 37.0405 34.8396 36.7433Z" fill="#FF007A"/>
</g>
<defs>
<clipPath id="clip0_364_5054">
<rect width="62" height="72" fill="white" transform="translate(5)"/>
</clipPath>
</defs>
</svg>

<svg width="72" height="72" fill="none" xmlns="http://www.w3.org/2000/svg"><g clip-path="url(#a)" fill="#FF007A"><path d="M29.314 16.384c-.774-.111-.81-.148-.442-.185.7-.112 2.32.037 3.462.297 2.653.631 5.047 2.266 7.59 5.127l.662.78.958-.149c4.09-.668 8.289-.148 11.789 1.486.958.446 2.468 1.338 2.652 1.56.074.075.184.558.258 1.041.258 1.746.147 3.046-.405 4.05-.295.557-.295.705-.11 1.188.147.372.589.632.994.632.884 0 1.805-1.412 2.247-3.38l.184-.781.332.372c1.879 2.117 3.352 5.052 3.573 7.133l.074.557-.332-.483c-.552-.855-1.068-1.412-1.768-1.895-1.252-.854-2.579-1.114-6.078-1.3-3.169-.186-4.974-.446-6.742-1.04-3.02-1.003-4.568-2.304-8.141-7.096-1.584-2.118-2.579-3.27-3.574-4.236-2.173-2.117-4.347-3.232-7.183-3.678Z"/><path d="M56.759 21.102c.073-1.412.258-2.34.663-3.195.147-.334.295-.632.331-.632.037 0-.036.26-.147.558-.295.817-.331 1.969-.147 3.269.258 1.672.368 1.895 2.136 3.715.81.855 1.769 1.932 2.137 2.378l.626.817-.626-.594c-.774-.743-2.542-2.155-2.947-2.34-.258-.15-.295-.15-.479.036-.147.149-.184.372-.184 1.45-.037 1.671-.258 2.711-.81 3.789-.295.557-.332.446-.074-.186.184-.483.22-.706.22-2.303 0-3.233-.368-4.013-2.615-5.313-.552-.334-1.51-.817-2.063-1.077-.59-.26-1.031-.483-.995-.483.074-.075 2.248.557 3.095.928 1.29.52 1.51.558 1.658.52.11-.111.184-.408.22-1.337ZM30.824 26.638c-1.547-2.155-2.542-5.498-2.32-7.988l.073-.78.368.074c.663.112 1.805.558 2.358.892 1.474.892 2.137 2.118 2.763 5.164.184.892.442 1.932.552 2.266.185.558.885 1.858 1.474 2.675.405.595.147.892-.773.818-1.4-.149-3.28-1.45-4.495-3.121ZM54.88 42.799c-7.294-2.972-9.873-5.536-9.873-9.883 0-.631.037-1.151.037-1.151.037 0 .295.223.626.483 1.474 1.189 3.132 1.709 7.736 2.377 2.69.409 4.237.706 5.637 1.19 4.457 1.485 7.22 4.532 7.883 8.656.184 1.188.074 3.455-.22 4.644-.259.928-.995 2.637-1.18 2.674-.036 0-.11-.185-.11-.483-.074-1.56-.847-3.046-2.137-4.198-1.547-1.337-3.536-2.34-8.399-4.31ZM49.722 44.025a8.866 8.866 0 0 0-.368-1.56l-.184-.558.331.409c.48.557.848 1.226 1.18 2.155.257.706.257.929.257 2.08 0 1.115-.037 1.375-.258 2.006-.368 1.003-.81 1.71-1.547 2.49-1.326 1.374-3.058 2.117-5.526 2.452-.442.037-1.694.148-2.8.222-2.762.15-4.604.446-6.262 1.04-.221.075-.442.15-.479.112-.074-.074 1.068-.743 1.99-1.189 1.289-.631 2.615-.966 5.525-1.486 1.437-.223 2.91-.52 3.279-.669 3.647-1.151 5.452-4.012 4.862-7.504Z"/><path d="M53.075 50.006c-.958-2.117-1.179-4.123-.663-6.018.073-.186.147-.372.22-.372.075 0 .296.112.517.26.442.297 1.363.818 3.72 2.118 2.984 1.635 4.679 2.898 5.858 4.347 1.031 1.263 1.657 2.712 1.952 4.495.184 1.003.074 3.418-.184 4.421-.81 3.158-2.653 5.684-5.342 7.133-.405.223-.736.372-.773.372-.037 0 .11-.372.331-.818.884-1.894.995-3.715.332-5.758-.405-1.263-1.253-2.786-2.947-5.35-2.026-2.972-2.505-3.752-3.021-4.83ZM25.63 61.375c2.726-2.304 6.078-3.938 9.173-4.459 1.326-.222 3.536-.148 4.752.186 1.952.52 3.72 1.635 4.642 3.01.884 1.337 1.289 2.489 1.694 5.052.148 1.003.332 2.043.369 2.266.294 1.338.884 2.378 1.62 2.935 1.143.855 3.132.892 5.084.149.332-.111.627-.223.627-.186.073.075-.921.743-1.584 1.078-.921.483-1.658.631-2.653.631-1.768 0-3.279-.929-4.494-2.786-.258-.372-.774-1.45-1.216-2.452-1.29-3.01-1.952-3.901-3.463-4.904-1.326-.855-3.02-1.04-4.31-.409-1.695.818-2.137 3.01-.958 4.347.48.557 1.363 1.003 2.1 1.114 1.363.186 2.542-.891 2.542-2.266 0-.892-.332-1.412-1.216-1.82-1.179-.52-2.468.074-2.431 1.226 0 .483.22.78.7 1.003.295.148.295.148.074.111-1.069-.223-1.327-1.56-.48-2.414 1.032-1.04 3.206-.595 3.942.854.295.594.332 1.783.074 2.526-.626 1.635-2.395 2.49-4.2 2.006-1.215-.334-1.731-.668-3.205-2.192-2.578-2.674-3.573-3.194-7.257-3.752l-.7-.111.774-.743Z"/><path fill-rule="evenodd" clip-rule="evenodd" d="M6.253 1.598c8.583 10.514 21.808 26.86 22.471 27.752.553.743.332 1.449-.59 1.969-.515.297-1.583.594-2.099.594-.59 0-1.29-.297-1.768-.78-.332-.334-1.768-2.452-5.01-7.542-2.469-3.9-4.568-7.133-4.605-7.17-.147-.074-.147-.074 4.347 8.025 2.837 5.09 3.757 6.91 3.757 7.133 0 .483-.147.743-.736 1.412-.995 1.114-1.437 2.377-1.769 5.015-.368 2.935-1.363 5.016-4.2 8.545-1.657 2.08-1.915 2.452-2.32 3.307-.516 1.04-.663 1.634-.737 2.972-.074 1.412.074 2.303.479 3.64.368 1.19.774 1.97 1.768 3.493.848 1.337 1.363 2.34 1.363 2.712 0 .297.074.297 1.4 0 3.168-.743 5.784-2.006 7.22-3.567.885-.966 1.106-1.486 1.106-2.823 0-.855-.037-1.04-.258-1.56-.368-.818-1.068-1.487-2.579-2.527-1.99-1.374-2.836-2.489-3.057-3.975-.185-1.263.036-2.118 1.142-4.458 1.142-2.415 1.436-3.418 1.62-5.87.111-1.56.295-2.192.737-2.675.48-.52.884-.706 2.026-.855 1.88-.26 3.095-.743 4.053-1.672.847-.78 1.215-1.56 1.252-2.712l.037-.854-.479-.52C29.093 26.6 5.111 0 5 0c-.037 0 .553.706 1.253 1.598Zm11.31 52.83a1.541 1.541 0 0 0-.48-2.044c-.626-.409-1.584-.223-1.584.334 0 .149.074.297.295.372.331.185.368.371.11.78-.258.409-.258.78.074 1.04.516.409 1.216.186 1.584-.483ZM32.482 34.886c-.884.26-1.732 1.226-1.99 2.192-.147.594-.073 1.671.185 2.006.405.52.773.669 1.805.669 2.026 0 3.758-.892 3.942-1.97.184-.891-.59-2.117-1.658-2.674-.553-.298-1.695-.409-2.284-.223Zm2.358 1.857c.294-.446.184-.928-.369-1.263-.994-.631-2.505-.111-2.505.855 0 .483.774 1.003 1.51 1.003.48 0 1.142-.297 1.364-.595Z"/></g><defs><clipPath id="a"><path fill="#fff" transform="translate(5)" d="M0 0h62v72H0z"/></clipPath></defs></svg>
